X: 13480
T: Flower Of The Flock, The
R: reel
M: 4/4
K: Gmajor
|DEGA B (3BBB|cABG AGEG|
DEGA BGGB|c2 Bc AGEG|
DEGA BGBd|(3cBA BG ABGE|
gdeg (3ded Bd|then add any second bar from above|
g2 (3efg dcBd|ditto|

